X:1
T:A minor                      Jacob Kimball, 1793
T:Isaac Watts, 1719 (Psalm 30, Part 2)                     88. 88. (L. M.)
T:Woburn
T:Transcribed from Kimball's Rural Harmony, 1793.
%%score [ 1 2 3 4 ]
L:1/8
Q:1/4=110
M:2/2
K:C
V:1 treble nm="Tr." snm="Tr."
V:2 treble nm="C." snm="C."
V:3 treble-8 nm="T." snm="T."
V:4 bass nm="B." snm="B."
V:1
"^1. Firm  was    my   health,     my       day      was   bright,  And   I   presumed  'twould  ne'er      be           night;        Fond–ly   I    said      with –""^2. But    I          for  –  got       thine    arm      was   strong  Which made my mountain  stand      so            long:         Soon  as  thy  face      be  –""^3.  I     cried      a   –   loud      to         thee,      my     God.   \"What canst thou  pro –fit   by ____    my _____  blood?      Deep  in  the  dust    can""^4. \"Hear  me,   O         God      of        grace,\"     I       said,     \"And   bring   me   from  a – mong     the ____    dead:\"     Thy word re–buked  the""^5.  My tongue,  the      glo   –  ry          of         my  frame,     Shall  ne'er   be   si  –  lent     of ____     thy ____ name;     Thy praise shall sound thro'" A4 A^G AB | %1
 c6 BA | (^G2 A2) B4 | c6 A2 | ^G4 A4 | B6 B2 | (A2 e2) (d2 c2) | B8 |: c4 c2 c2 | B6 B2 | %10
"^1. – in _______     my         heart,                                                                                           \"Plea —sure  and peace  shall    ne'er     de —  part.\"""^2.  – gan _____     to           hide,                                                                                                My  health   was  gone,  my     com — forts  died.""^3.     I ________      de   –    clare                                                                                                Thy  truth,  or    sing      thy     good — ness  there?""^4.  pains ____       I             felt,                                                                                                 Thy  par–doning   love   re  —  moved   my   guilt.""^5.  earth ____      and       heav'n                                                                                              For   sick—ness   healed  and   sins   for— given." (c2 d2 e2) A2 | %11
 ^G8 | z8 | z8 | z8 | (c2 B2) c2 A2 | e6 fe | (d2 c2) B4 | A8 :| %19
V:2
 E4 E2 E2 | G6 F2 | E4 E4 | E6 E2 | E4 E4 | G6 G2 | E4 (FG A2) | ^G8 |: G4 G2 G2 | G6 E2 | %10
"^1. – in       my                    heart,                                                                \"Plea–sure  and  peace _______________    shall     ne'er       de — part.\"""^2. – gan     to                      hide,                                                                   My  health  was  gone, ______________     my      com —  forts   died.""^3.     I         de    –       –      clare                                                                    Thy  truth,  or    sing _______________    thy      good —  ness  there?""^4.  pains    I                         felt,                                                                     Thy par–doning love _______________    re   –  moved     my     guilt.""^5.  earth   and                   heav'n                                                                  For  sickness  healed _______________    and      sins        for – given." E4 E4 | %11
 E8 | z8 | z8 | (A2 ^G2) A2 E2 | A8- | A6 F2 | E4 E4 | E8 :| %19
V:3
"^1. Firm  was    my   health,     my       day      was   bright,  And   I   presumed  'twould  ne'er      be           night;        Fond–ly   I    said      with –""^2. But    I          for  –  got       thine    arm      was   strong  Which made my mountain  stand      so            long:         Soon  as  thy  face      be  –""^3.  I     cried      a   –   loud      to         thee,      my     God.   \"What canst thou  pro –fit   by ____    my _____  blood?      Deep  in  the  dust    can""^4. \"Hear  me,   O         God      of        grace,\"     I       said,     \"And   bring   me   from  a – mong     the ____    dead:\"     Thy word re–buked  the""^5.  My tongue,  the      glo   –  ry          of         my  frame,     Shall  ne'er   be   si  –  lent     of ____     thy ____ name;     Thy praise shall sound thro'" A4 AB cd | %1
 e6 dc | (B2 A2) ^G4 | A6 c2 | B4 c4 | d6 d2 | c4 d4 | e8 |: e4 e2 e2 | d6 e2 | %10
"^1. – in _______     my         heart,                                  \"Plea–sure  and  peace _____________________________________    shall     ne'er     de — part.\"""^2.  –gan ______     to           hide,                                     My  health  was  gone, ____________________________________     my      com –  forts   died.""^3.    I _________     de    –     clare                                     Thy  truth,   or    sing _____________________________________      thy     good – ness  there?""^4.    pains ___       I             felt,                                       Thy pardoning   love_____________ ________________________       re  –  moved  my     guilt.""^5.   earth ______   and      heav'n                                    For  sick–ness  healed ___________________________________       and     sins      for – given." (c2 B2 Ae) dc | %11
{c} B8 | z8 | (c2 B2) c2 A2 | e8- | e8- | e6 dc | (B2 A2) ^G4 | A8 :| %19
V:4
 A,4 A,2 E,2 | C,6 D,2 | E,4 E,4 | A,6 A,2 | E,4 A,4 | G,6 G,2 | A,4 B,4 | E,8 |: C,4 C,2 C,2 | %9
 G,6 ^G,2 | %10
"^1. – in       my                    heart,   \"Plea–sure and peace _________________________________________________________    shall     ne'er       de — part.\"""^2. – gan      to                     hide,     My  health  was  gone, ________________________________________________________     my      com —  forts   died.""^3.     I         de          –         clare      Thy  truth,  or   sing __________________________________________________________    thy      good —  ness  there?""^4.   pains   I                        felt,        Thy pardoning  love __________________________________________________________    re  –   moved    my      guilt.""^5.  earth    and                 heav'n     For  sickness  healed _________________________________________________________   and      sins        for—given." A,4 A,,4 | %11
 E,8 | (A,2 ^G,2) A,2 E,2 | [A,,A,]8- | [A,,A,]8- | [A,,A,]8- | [A,,A,]6 D,2 | E,4 E,4 | A,,8 :| %19

